X: 284
T:Sancta Maria virgo virginum
N: Derived from Jos2507-Sancta_Maria_virgo_virginum.krn
C: Josquin des Prez
%%abc-version 2.0
%%abcx-abcm2ps-target-version 5.9.1 (29 Sep 2008)
%%abc-creator hum2abc beta
%%abcx-conversion-date 2019/02/12 16:15:52
%%abc-edited-by Jesse Rodin
%%abc-edited-by Will Watson 23/05/2011
%%abcx-initial-encoding-date 2011/05/23/
%%humdrum-veritas 2150673105
%%humdrum-veritas-data 2818056309
%%linebreak <none>
%%barnumbers 0
L: 1/4
M: 2/1
Q: 1/2=120
V: 1 clef=treble
V: 2 clef=treble-8
V: 3 clef=treble-8
V: 4 clef=treble-8
V: 5 clef=bass
V: 6 clef=bass
K: F
[V:1] z4d4- | 
[V:2] g8 | 
[V:3] z8 | 
[V:4] z8 | 
[V:5] z8 | 
[V:6] z8 | 
[V:1] d4A4 | 
[V:2] d4f4 | 
[V:3] z8 | 
[V:4] z8 | 
[V:5] z8 | 
[V:6] z8 | 
[V:1] c4B4 | 
[V:2] e4d4 | 
[V:3] z8 | 
[V:4] z8 | 
[V:5] z8 | 
[V:6] z8 | 
[V:1] A4z2A2 | 
[V:2] z2d2f4 | 
[V:3] z8 | 
[V:4] d8 | 
[V:5] z8 | 
[V:6] z8 | 
[V:1] c4G3A | 
[V:2] c3defg2- | 
[V:3] z8 | 
[V:4] A4c4 | 
[V:5] z8 | 
[V:6] z8 | 
[V:1] Bcd3^cc=B/c/ | 
[V:2] gfede2e2 | 
[V:3] z8 | 
[V:4] B4A4 | 
[V:5] z8 | 
[V:6] z8 | 
[V:1] d8 | 
[V:2] d4z2d2 | 
[V:3] z4d4- | 
[V:4] z2G2B4 | 
[V:5] G,8 | 
[V:6] z8 | 
[V:1] z8 | 
[V:2] f4c3d | 
[V:3] d4A4 | 
[V:4] F3GABc2- | 
[V:5] D,4F,4 | 
[V:6] z8 | 
[V:1] z8 | 
[V:2] efg4fe | 
[V:3] c4B4 | 
[V:4] cdecd4- | 
[V:5] E,4D,4 | 
[V:6] z8 | 
[V:1] z8 | 
[V:2] f8 | 
[V:3] A4z2A2 | 
[V:4] d2cBA2FG | 
[V:5] z2D,2F,4 | 
[V:6] D,8 | 
[V:1] z8 | 
[V:2] z8 | 
[V:3] c4G3A | 
[V:4] ABc4C2 | 
[V:5] C,3D,E,F,G,2- | 
[V:6] A,,4C,4 | 
[V:1] z8 | 
[V:2] z8 | 
[V:3] Bcd3^c^c=B/^c/ | 
[V:4] DEFGA4- | 
[V:5] G,F,E,D,E,2E,2 | 
[V:6] B,,4A,,4 | 
[V:1] z8 | 
[V:2] z8 | 
[V:3] d8 | 
[V:4] A4z2A2 | 
[V:5] D,8 | 
[V:6] z2D,2F,4 | 
[V:1] z8 | 
[V:2] z4z2d2 | 
[V:3] z8 | 
[V:4] c4G2B2- | 
[V:5] z8 | 
[V:6] C,3D,E,F,G,2- | 
[V:1] z2G2G2G2 | 
[V:2] d2d2c2c2 | 
[V:3] z8 | 
[V:4] BAGFG4 | 
[V:5] z8 | 
[V:6] G,F,E,D,E,2E,2 | 
[V:1] F2F2G2A2 | 
[V:2] d2f2e2d2- | 
[V:3] z8 | 
[V:4] A4z4 | 
[V:5] z8 | 
[V:6] D,4z4 | 
[V:1] F2G3FED | 
[V:2] dcBAB4 | 
[V:3] d4d2d2 | 
[V:4] z8 | 
[V:5] z8 | 
[V:6] z8 | 
[V:1] E2A3GAF | 
[V:2] A4z2d2 | 
[V:3] c2c2d2f2 | 
[V:4] z8 | 
[V:5] z8 | 
[V:6] z8 | 
[V:1] GAB3AGF | 
[V:2] e2f2g4 | 
[V:3] e2d3cBA | 
[V:4] z8 | 
[V:5] z4G,4 | 
[V:6] z8 | 
[V:1] GABGA2GF | 
[V:2] z8 | 
[V:3] B4A2B2 | 
[V:4] d4d2d2 | 
[V:5] G,2G,2F,2G,2 | 
[V:6] z8 | 
[V:1] E4D4 | 
[V:2] z8 | 
[V:3] c2A4d2- | 
[V:4] c2c2d3c | 
[V:5] A,4F,2G,2- | 
[V:6] z8 | 
[V:1] z8 | 
[V:2] z8 | 
[V:3] d2cBc4 | 
[V:4] BAGFG4 | 
[V:5] G,F,E,D,E,2E,2 | 
[V:6] G,4G,2G,2 | 
[V:1] z8 | 
[V:2] z8 | 
[V:3] d4e2f2- | 
[V:4] A4B2c2 | 
[V:5] D,4z4 | 
[V:6] F,2F,2G,2A,2 | 
[V:1] z8 | 
[V:2] z4g4- | 
[V:3] fed4^c=B | 
[V:4] A2B3AGF | 
[V:5] z8 | 
[V:6] F,2G,3F,E,D, | 
[V:1] z4d4- | 
[V:2] g4f4- | 
[V:3] ^c4d4- | 
[V:4] G4A4 | 
[V:5] z4z2D,2 | 
[V:6] E,4D,4 | 
[V:1] d4c4 | 
[V:2] f2ede4 | 
[V:3] d4z4 | 
[V:4] B4G4 | 
[V:5] F,2G,2E,3F, | 
[V:6] B,,4C,3B,, | 
[V:1] B4A3G | 
[V:2] d4f3e | 
[V:3] z4d4- | 
[V:4] z8 | 
[V:5] G,4F,4 | 
[V:6] G,,A,,B,,C,D,4 | 
[V:1] F2G3FED | 
[V:2] dce3dd2- | 
[V:3] d2c2B4 | 
[V:4] z8 | 
[V:5] z8 | 
[V:6] z8 | 
[V:1] E2E2D4 | 
[V:2] d2^c2d4 | 
[V:3] A4z4 | 
[V:4] z2A2B2G2 | 
[V:5] z4G,4- | 
[V:6] z4z2G,,2- | 
[V:1] z8 | 
[V:2] z8 | 
[V:3] d8 | 
[V:4] B4A2B2 | 
[V:5] G,4F,4 | 
[V:6] G,,A,,B,,C,D,2B,,2 | 
[V:1] z8 | 
[V:2] g8 | 
[V:3] c4B4 | 
[V:4] G4d4- | 
[V:5] E,4D,4 | 
[V:6] C,4G,,A,,B,,C, | 
[V:1] z8 | 
[V:2] f4e4 | 
[V:3] A2B2G3A | 
[V:4] d4c4 | 
[V:5] z2D,2E,4 | 
[V:6] D,2B,,2C,4 | 
[V:1] z8 | 
[V:2] d4f2e2 | 
[V:3] Bcd4cB | 
[V:4] B4A3G | 
[V:5] G,4F,4- | 
[V:6] G,,4D,4- | 
[V:1] z8 | 
[V:2] dce3dd2- | 
[V:3] A2c2d2B2 | 
[V:4] F2G3FED | 
[V:5] F,2E,2F,2G,2 | 
[V:6] D,2C,2B,,4 | 
[V:1] z4z2D2- | 
[V:2] d2^c2d4 | 
[V:3] cBAGF2A2 | 
[V:4] E2E2D4 | 
[V:5] A,6F,2 | 
[V:6] A,,4D,4 | 
[V:1] D2G4F2 | 
[V:2] z4z2d2- | 
[V:3] B2c2A4 | 
[V:4] z8 | 
[V:5] G,2E,2D,4 | 
[V:6] z8 | 
[V:1] B4A4 | 
[V:2] d2g4f2 | 
[V:3] z2G2d4- | 
[V:4] z8 | 
[V:5] G,,4z4 | 
[V:6] z4z2D,2- | 
[V:1] z2D2E2F2- | 
[V:2] b4a4 | 
[V:3] d2B2c2d2- | 
[V:4] z8 | 
[V:5] z4z2D,2- | 
[V:6] D,2G,4F,2 | 
[V:1] F2D2E2F2- | 
[V:2] f2g2a4 | 
[V:3] d2B2c2d2- | 
[V:4] z4z2D2- | 
[V:5] D,2G,4F,2 | 
[V:6] B,4A,4 | 
[V:1] F2EDE4 | 
[V:2] f2g2a4 | 
[V:3] d2G2c3B | 
[V:4] D2d4c2 | 
[V:5] B,4A,3G, | 
[V:6] z4A,,4 | 
[V:1] DEFGA2B2- | 
[V:2] z2d2f2f2 | 
[V:3] A4z4 | 
[V:4] f4d4 | 
[V:5] F,8 | 
[V:6] D,6B,,2 | 
[V:1] B2AGB2A2- | 
[V:2] g4f2f2- | 
[V:3] z8 | 
[V:4] B2c2d4- | 
[V:5] z4F,4 | 
[V:6] _E,4D,4 | 
[V:1] AGG4^F2 | 
[V:2] f2e2d3c | 
[V:3] z8 | 
[V:4] d2cBA2B2- | 
[V:5] D,2E,2F,3E, | 
[V:6] B,,2C,2D,4 | 
[V:1] G4z4 | 
[V:2] B4z4 | 
[V:3] d4c2A2 | 
[V:4] BAG4^F2 | 
[V:5] D,2B,,2C,2D,2 | 
[V:6] G,,4z4 | 
[V:1] z8 | 
[V:2] z8 | 
[V:3] B4A2B2- | 
[V:4] G4z4 | 
[V:5] G,,4D,4 | 
[V:6] z2G,2F,2D,2 | 
[V:1] z8 | 
[V:2] z8 | 
[V:3] B2AGB2A2- | 
[V:4] z4z2d2 | 
[V:5] z2G,2F,2D,2 | 
[V:6] E,4D,3C, | 
[V:1] z4z2d2 | 
[V:2] z8 | 
[V:3] AGE2F2G2- | 
[V:4] c2A2B4 | 
[V:5] E,4D,4 | 
[V:6] A,,2C,2B,,2G,,2 | 
[V:1] c2A2B4 | 
[V:2] z4z2g2 | 
[V:3] G2^F2G4 | 
[V:4] A4d4 | 
[V:5] z8 | 
[V:6] A,,4G,,4 | 
[V:1] A2B4AG | 
[V:2] f2d2e4 | 
[V:3] z4g4 | 
[V:4] D2d3Bc2 | 
[V:5] z8 | 
[V:6] z8 | 
[V:1] B2A3GE2 | 
[V:2] d3cA2c2 | 
[V:3] f2d2e4 | 
[V:4] d4z4 | 
[V:5] z2D,4C,2 | 
[V:6] z8 | 
[V:1] F2G4^F2 | 
[V:2] B2G2A4 | 
[V:3] d2c2d2d2 | 
[V:4] z4z2A2 | 
[V:5] D,2E,2D,4 | 
[V:6] z8 | 
[V:1] G8 | 
[V:2] G8 | 
[V:3] d8 | 
[V:4] B4B4 | 
[V:5] G,,8 | 
[V:6] z4D,4 | 
[V:1] z8 | 
[V:2] z4e4 | 
[V:3] z2A2c4 | 
[V:4] A4z2G2 | 
[V:5] z8 | 
[V:6] F,4E,4 | 
[V:1] z4A4 | 
[V:2] f4f4 | 
[V:3] B4A4 | 
[V:4] d6c2 | 
[V:5] z8 | 
[V:6] D,4D,4 | 
[V:1] B4B4 | 
[V:2] d4z4 | 
[V:3] z2G2B2G2 | 
[V:4] B3cd2e2- | 
[V:5] z8 | 
[V:6] G,6G,2 | 
[V:1] A4z4 | 
[V:2] z4e4 | 
[V:3] A2F2G4 | 
[V:4] edd4^c2 | 
[V:5] z8 | 
[V:6] F,4E,4 | 
[V:1] z4A4 | 
[V:2] f4f4 | 
[V:3] A8 | 
[V:4] d8 | 
[V:5] z2D,2F,4 | 
[V:6] D,8 | 
[V:1] B4A4 | 
[V:2] d4z2d2 | 
[V:3] z2d2f4 | 
[V:4] z4A4 | 
[V:5] G,4D,4 | 
[V:6] z8 | 
[V:1] G4z2G2 | 
[V:2] e2g3fde | 
[V:3] e4d4 | 
[V:4] c4B4 | 
[V:5] z2C,2G,2G,2 | 
[V:6] z8 | 
[V:1] A2F2G3A | 
[V:2] f2d2e2g2 | 
[V:3] z8 | 
[V:4] A4z2G2 | 
[V:5] F,4E,4 | 
[V:6] z8 | 
[V:1] B2A3FB2- | 
[V:2] f4z4 | 
[V:3] z2A2f4- | 
[V:4] d6d2 | 
[V:5] D,4z2B,,2 | 
[V:6] z8 | 
[V:1] BAA4G2 | 
[V:2] z8 | 
[V:3] f2f2d2e2 | 
[V:4] c4B4 | 
[V:5] F,3F,G,2G,2 | 
[V:6] z8 | 
[V:1] A8 | 
[V:2] z4f4- | 
[V:3] f4d4- | 
[V:4] A8 | 
[V:5] F,4z4 | 
[V:6] D,8- | 
[V:1] z4A4- | 
[V:2] f2f2f4 | 
[V:3] d4d4 | 
[V:4] z8 | 
[V:5] F,6F,2 | 
[V:6] D,4D,4 | 
[V:1] A4A4 | 
[V:2] d4d4 | 
[V:3] A4A4 | 
[V:4] z4F4 | 
[V:5] F,4D,4 | 
[V:6] D,8 | 
[V:1] G4G4 | 
[V:2] g6f2 | 
[V:3] d4d4 | 
[V:4] G4B4 | 
[V:5] D,4G,4- | 
[V:6] G,,4G,,4 | 
[V:1] c6B2 | 
[V:2] e8- | 
[V:3] c6B2 | 
[V:4] G4G4 | 
[V:5] G,2F,2E,4 | 
[V:6] C,6B,,2 | 
[V:1] A8- | 
[V:2] e8 | 
[V:3] c8- | 
[V:4] A6A2 | 
[V:5] z4E,4 | 
[V:6] A,,8 | 
[V:1] A8 | 
[V:2] z8 | 
[V:3] c8 | 
[V:4] A4z2A2 | 
[V:5] F,4E,4 | 
[V:6] z4A,,4 | 
[V:1] z8 | 
[V:2] z8 | 
[V:3] z8 | 
[V:4] B3AB2A2- | 
[V:5] F,3E,F,2E,2- | 
[V:6] D,6C,2 | 
[V:1] z4A4 | 
[V:2] z4c4 | 
[V:3] z4A4 | 
[V:4] AGG4^F2 | 
[V:5] E,D,D,4C,2 | 
[V:6] B,,4A,,4 | 
[V:1] B3AB2A2- | 
[V:2] B3cd2_e2 | 
[V:3] d6c2 | 
[V:4] G4z4 | 
[V:5] D,4z4 | 
[V:6] G,,4z4 | 
[V:1] AGG4^F2 | 
[V:2] d8 | 
[V:3] B4A4 | 
[V:4] z8 | 
[V:5] z4D,4 | 
[V:6] z8 | 
[V:1] G3F/E/D4 | 
[V:2] z2d2g4 | 
[V:3] G2G2B4 | 
[V:4] z8 | 
[V:5] G,4G,4 | 
[V:6] z4G,,4 | 
[V:1] E4z2G2 | 
[V:2] g4e4 | 
[V:3] c4G2G2 | 
[V:4] G4c4 | 
[V:5] E,4E,4 | 
[V:6] C,4C,4 | 
[V:1] c4c4 | 
[V:2] e4a4- | 
[V:3] AGABcdec | 
[V:4] c4A4 | 
[V:5] A,4A,4 | 
[V:6] A,,4A,,4 | 
[V:1] A4A4 | 
[V:2] a4f4 | 
[V:3] d3c/B/A4 | 
[V:4] A4d4- | 
[V:5] F,8 | 
[V:6] D,4D,4 | 
[V:1] d8 | 
[V:2] f4d4 | 
[V:3] B3A/G/F4 | 
[V:4] d4B4 | 
[V:5] D,8 | 
[V:6] B,,4B,,4 | 
[V:1] B4B4 | 
[V:2] d4g4- | 
[V:3] G4d4 | 
[V:4] B4G4 | 
[V:5] G,8 | 
[V:6] G,,4G,,4 | 
[V:1] G4G4 | 
[V:2] g4e4 | 
[V:3] e2c4BA | 
[V:4] G4c4 | 
[V:5] E,8 | 
[V:6] C,8 | 
[V:1] c4c4 | 
[V:2] g8- | 
[V:3] G6A2 | 
[V:4] c4c4 | 
[V:5] E,4E,4 | 
[V:6] C,8 | 
[V:1] B4B4 | 
[V:2] g4f4- | 
[V:3] B3cd_ed2- | 
[V:4] d3cB3A/G/ | 
[V:5] D,8- | 
[V:6] G,,3A,,B,,3C, | 
[V:1] A4G4- | 
[V:2] f4d4 | 
[V:3] dcA2B4 | 
[V:4] F4G4 | 
[V:5] D,8 | 
[V:6] D,4G,,4 | 
[V:1] G2^FEF4 | 
[V:2] d8 | 
[V:3] A2d3cA2 | 
[V:4] A8 | 
[V:5] z4D,4 | 
[V:6] D,8 | 
[V:1] G3F/E/D4 | 
[V:2] z2d2g4 | 
[V:3] B2G2B4 | 
[V:4] G4z4 | 
[V:5] G,4G,4 | 
[V:6] z4G,,4 | 
[V:1] E4z2G2 | 
[V:2] g4e4 | 
[V:3] c4G2G2 | 
[V:4] G4c4 | 
[V:5] E,4E,4 | 
[V:6] C,4C,4 | 
[V:1] c4c4 | 
[V:2] e4a4- | 
[V:3] AGABcdec | 
[V:4] c4A4 | 
[V:5] A,4A,4 | 
[V:6] A,,4A,,4 | 
[V:1] A4A4 | 
[V:2] a4f4 | 
[V:3] d3c/B/A4 | 
[V:4] A4d4- | 
[V:5] F,4F,4 | 
[V:6] D,4D,4 | 
[V:1] d8 | 
[V:2] f4d4 | 
[V:3] B3A/G/F4 | 
[V:4] d4B4 | 
[V:5] D,4D,4 | 
[V:6] B,,4B,,4 | 
[V:1] B4B4 | 
[V:2] e4g4- | 
[V:3] G4d4 | 
[V:4] B4G4- | 
[V:5] G,8 | 
[V:6] G,,4G,,4 | 
[V:1] G4G4 | 
[V:2] g4e4 | 
[V:3] e2c4BA | 
[V:4] G4c4- | 
[V:5] E,8- | 
[V:6] C,8 | 
[V:1] c4c4 | 
[V:2] g8- | 
[V:3] G6A2 | 
[V:4] c4c4 | 
[V:5] E,8 | 
[V:6] C,8 | 
[V:1] B4B4 | 
[V:2] g4f4- | 
[V:3] B3cd_ed2- | 
[V:4] d3cB3A/G/ | 
[V:5] D,8- | 
[V:6] G,,3A,,B,,3C, | 
[V:1] A4G4- | 
[V:2] f4d4 | 
[V:3] dcA2B4 | 
[V:4] F4G4 | 
[V:5] D,8 | 
[V:6] D,4G,,4 | 
[V:1] G2^FEF4 | 
[V:2] d8- | 
[V:3] A2d3cA2 | 
[V:4] A8 | 
[V:5] z4D,4- | 
[V:6] D,8 | 
[V:1] G8- | 
[V:2] d4c4 | 
[V:3] B4G2c2- | 
[V:4] G8- | 
[V:5] D,4E,4 | 
[V:6] G,,4C,4- | 
[V:1] G8- | 
[V:2] e4d4 | 
[V:3] cBGAB4 | 
[V:4] G8- | 
[V:5] C,4D,4 | 
[V:6] C,4B,,4 | 
[V:1] G8- | 
[V:2] c3de4 | 
[V:3] G2c4BA | 
[V:4] G8- | 
[V:5] E,4C,4 | 
[V:6] C,8 | 
[V:1] G8 |]  
[V:2] d8 |]  
[V:3] B8 |]  
[V:4] G8 |]  
[V:5] D,8 |]  
[V:6] G,,8 |]  



